apps/penxle.com/src/assets/icons/camera.svg

<svg fill="currentColor" viewBox="0 0 41 41" xmlns="http://www.w3.org/2000/svg">
  <path
    d="M20.5 26.3335C21.8807 26.3335 23 25.2142 23 23.8335C23 22.4528 21.8807 21.3335 20.5 21.3335C19.1193 21.3335 18 22.4528 18 23.8335C18 25.2142 19.1193 26.3335 20.5 26.3335Z"
  />
  <path
    d="M32.1666 12.1667H27.1666V9.66667C27.1666 8.5616 26.7276 7.50179 25.9462 6.72039C25.1648 5.93899 24.105 5.5 22.9999 5.5H17.9999C16.8948 5.5 15.835 5.93899 15.0536 6.72039C14.2722 7.50179 13.8333 8.5616 13.8333 9.66667V12.1667H8.83325C7.50717 12.1667 6.2354 12.6935 5.29772 13.6311C4.36004 14.5688 3.83325 15.8406 3.83325 17.1667V30.5C3.83325 31.8261 4.36004 33.0979 5.29772 34.0355C6.2354 34.9732 7.50717 35.5 8.83325 35.5H32.1666C33.4927 35.5 34.7644 34.9732 35.7021 34.0355C36.6398 33.0979 37.1666 31.8261 37.1666 30.5V17.1667C37.1666 15.8406 36.6398 14.5688 35.7021 13.6311C34.7644 12.6935 33.4927 12.1667 32.1666 12.1667ZM17.1666 9.66667C17.1666 9.44565 17.2544 9.23369 17.4107 9.07741C17.5669 8.92113 17.7789 8.83333 17.9999 8.83333H22.9999C23.2209 8.83333 23.4329 8.92113 23.5892 9.07741C23.7455 9.23369 23.8333 9.44565 23.8333 9.66667V12.1667H17.1666V9.66667ZM20.4999 29.6667C19.3462 29.6667 18.2184 29.3245 17.2591 28.6836C16.2998 28.0426 15.5521 27.1316 15.1106 26.0657C14.6691 24.9998 14.5536 23.8269 14.7787 22.6953C15.0038 21.5637 15.5593 20.5244 16.3751 19.7085C17.1909 18.8927 18.2303 18.3372 19.3619 18.1121C20.4934 17.887 21.6663 18.0025 22.7322 18.444C23.7981 18.8855 24.7092 19.6332 25.3502 20.5925C25.9911 21.5518 26.3333 22.6796 26.3333 23.8333C26.3333 25.3804 25.7187 26.8642 24.6247 27.9581C23.5307 29.0521 22.047 29.6667 20.4999 29.6667Z"
  />
</svg>

<svg xmlns="http://www.w3.org/2000/svg" fill="currentColor" viewBox="0 0 41 41">
  <path d="M20.5 26.334a2.5 2.5 0 1 0 0-5 2.5 2.5 0 0 0 0 5Z" />
  <path
    d="M32.167 12.167h-5v-2.5A4.167 4.167 0 0 0 23 5.5h-5a4.167 4.167 0 0 0-4.167 4.167v2.5h-5a5 5 0 0 0-5 5V30.5a5 5 0 0 0 5 5h23.334a5 5 0 0 0 5-5V17.167a5 5 0 0 0-5-5Zm-15-2.5A.833.833 0 0 1 18 8.833h5a.833.833 0 0 1 .833.834v2.5h-6.666v-2.5Zm3.333 20a5.834 5.834 0 1 1 0-11.668 5.834 5.834 0 0 1 0 11.668Z"
  />
</svg>
